icon-themes/sifr_svg/cmd/lc_starshapes.star8.svg

<svg viewBox="0 0 24 24" xmlns="http://www.w3.org/2000/svg"><g fill="#555753"><path d="m12 2.0019531-.732422.7890625-2.267578 2.2089844h-4v4l-3 3 3 3v4h4l3 3 3-3h4v-4l3-3-3-3v-4h-4zm0 2.998047 2 2h3v2.9999999l2 2-2 2v3h-3l-2 2.0625-2-2.0625h-3v-3l-2-2 2-2v-2.9999999h3z"/><path d="m12 5 2 2h3v3l2 2-2 2v3h-3l-2 2.0625-2-2.0625h-3v-3l-2-2 2-2v-3h3z" opacity=".35"/></g></svg>

<svg xmlns="http://www.w3.org/2000/svg" viewBox="0 0 24 24">
  <path
     style="fill:#555753"
     d="M 12,2.0019531 11.267578,2.7910156 9,5 H 5 v 4 l -3,3 3,3 v 4 h 4 l 3,3 3,-3 h 4 V 15 L 22,12 19,9 V 5 h -4 z m 0,2.998047 2,2 h 3 V 10 l 2,2 -2,2 v 3 H 14 L 12,19.0625 10,17 H 7 V 14 L 5,12 7,10 V 7.0000001 h 3 z"
     />
  <path
     style="opacity:0.35;fill:#555753"
     d="m 12,5 2,2 h 3 v 3 l 2,2 -2,2 v 3 H 14 L 12,19.0625 10,17 H 7 V 14 L 5,12 7,10 V 7 h 3 z"
     />
</svg>
